X: 1
T: Miss Ramsey
M: 4/4
L: 1/8
R: reel
K: Gmaj
~G3e dB~B2|dBeB dBAB|~G3e dB~B2|1 gedB AGAB:|2  gedB A2A2||
|:bg~g2 aged|eaag fd~d2|bgaf gfef|1 gedB A2A2:|2 gedB AGAF||
